src/images/icons/telegram.svg

<svg width="32" height="32" viewBox="0 0 32 32" fill="currentColor" xmlns="http://www.w3.org/2000/svg">
<path d="M28.1343 5.04281C28.0009 5.08321 27.8675 5.12361 27.7341 5.17748C19.7565 8.30184 11.7921 11.4397 3.82783 14.5775C3.37706 14.7481 2.98235 15.023 3.00072 15.5606C3.01853 16.0821 3.4281 16.3351 3.88119 16.4494C5.76221 17.015 7.64323 17.5672 9.52425 18.1193C9.75104 18.1867 9.8711 18.3079 9.9378 18.5368C10.6449 20.8262 11.3652 23.1156 12.0723 25.3916C12.4191 26.4959 13.2863 26.7113 14.0867 25.8898C15.0206 24.9337 15.9544 23.9775 16.8749 23.0079C17.075 22.7924 17.1951 22.8059 17.4219 22.9675C19.3562 24.4085 21.2906 25.836 23.225 27.2769C24.2656 28.0446 25.2794 27.654 25.5329 26.3881C26.9079 19.7302 28.2806 13.0716 29.6685 6.41645C29.7085 5.44682 28.9481 4.82734 28.1343 5.04281ZM24.8392 9.60815C21.1144 12.8883 17.4313 16.2171 13.7265 19.5199C13.4864 19.7354 13.3797 19.9778 13.3396 20.301C13.2196 21.4322 13.0995 22.5635 12.9661 23.6947C12.9085 24.0437 12.7563 24.1367 12.6193 23.7216C12.0415 21.8439 11.3705 19.9723 10.8983 18.0655C10.885 17.6615 11.0851 17.4864 11.3386 17.3382C15.6588 14.6262 19.9364 11.9619 24.2389 9.258C24.6596 8.97484 25.3818 9.16 24.8392 9.60815Z"/>
</svg>

<svg xmlns="http://www.w3.org/2000/svg" width="32" height="32" fill="currentColor" viewBox="0 0 32 32">
  <path d="M28.134 5.043c-.133.04-.267.08-.4.134-7.978 3.125-15.942 6.263-23.906 9.4-.107.04-.227.095-.32.149-.347.161-.52.444-.507.835.013.39.227.646.573.794.094.04.2.067.307.094 1.881.566 3.762 1.118 5.643 1.67a.549.549 0 0 1 .414.418c.707 2.29 1.427 4.579 2.134 6.855.347 1.104 1.214 1.32 2.015.498a281.84 281.84 0 0 0 2.788-2.882c.2-.216.32-.202.547-.04 1.934 1.44 3.869 2.868 5.803 4.309 1.04.768 2.054.377 2.308-.889 1.64-7.946 2.975-14.356 3.615-17.426.187-.89.36-1.778.52-2.546.04-.97-.72-1.589-1.534-1.373ZM24.84 9.608c-.627.552-1.24 1.118-1.867 1.67l-9.246 8.242c-.24.215-.346.458-.386.781-.12 1.131-.24 2.263-.374 3.394a1.64 1.64 0 0 1-.053.242.227.227 0 0 1-.08.108c-.067.027-.107-.027-.134-.081l-.08-.242c-.547-1.778-1.094-3.542-1.64-5.32-.04-.135-.067-.283-.08-.337-.014-.404.186-.579.44-.727 1.587-.996 3.175-1.98 4.749-2.976a2694.51 2694.51 0 0 0 8.15-5.104c.08-.054.161-.094.241-.148.16-.108.347-.162.48.027.134.202.027.35-.12.471Z"/>
</svg>
